X:72
T:Toy For Two Lutes
C:Thomas Rrobinson
L:1/8
Q:1/4=100
M:4/4
K:D
|: f2 gf ed ce | ae fg a2 b2 | af ge fd ec | dc/B/ A/G/F/E/ DA Bc :|: fe/f/ gf ea/g/ f/e/d/c/ | 
dc/d/ e/d/c/B/ cB/c/ dc | Bb/a/ g/f/e/d/ c/B/^A/^G/ =A/B/c/A/ | Bf ^g^a b4 :|: a/g/f/e/ dg/f/ e/d/c/B/ A/G/F/E/ | 
DE/F/ G/A/B/c/ d/c/B/c/ d/c/d/e/ | f/d/e/f/ g/e/f/g/ a/b/=c'/b/ a/g/f/e/ | da bc' d'4 :|: f/e/d/c/ d/e/f/g/ a3g/f/ | 
g/f/e/d/ e/d/c/B/ cd ef | eB ea/^g/ f/e/f/g/ f/e/^d/c/ | ^df/e/ f/e/d/c/ B4 :| z8 | 
z8 | z8 | z8 | z8 | z8 | z8 | z8 | 
 

